images/sale__2.svg

<svg width="80" height="80" viewBox="0 0 80 80" fill="none" xmlns="http://www.w3.org/2000/svg">
<circle cx="40" cy="40" r="40" fill="white"/>
<path d="M44.8484 15.4538C44.8484 14.0855 44.3264 12.8768 43.4413 11.9874C42.5562 11.098 41.3534 10.5735 39.9917 10.5735C38.6753 10.5735 37.4271 11.098 36.542 11.9874C35.6569 12.8768 35.1349 14.0855 35.1349 15.4538C35.1349 20.6077 37.1094 26.4685 39.0612 32.3065C39.1973 32.7854 39.3789 33.2643 39.5378 33.7204L39.0612 35.1343L30.5505 24.0512C30.4824 23.96 30.4597 23.8687 30.437 23.7775C30.4143 23.6863 30.4143 23.5723 30.437 23.4811C30.4597 23.2986 31.8441 21.7707 32.593 20.9953C32.7973 20.7673 32.9788 20.5848 33.0015 20.562C33.1377 20.3796 33.2058 20.1972 33.115 19.9919C33.0923 19.8779 32.9788 19.7639 32.8881 19.6955C32.7746 19.627 32.6611 19.6042 32.5249 19.627C32.003 19.7183 31.5037 19.8323 30.9817 19.9919C30.4597 20.1059 29.9831 20.2656 29.4838 20.4024C29.4611 20.4024 29.4157 20.4024 29.393 20.4024C29.2795 20.4024 29.1888 20.3796 29.1207 20.2884C29.0526 20.22 29.0072 20.1516 29.0072 20.0147C29.0072 19.9235 29.0072 19.8779 29.0072 19.8095C29.0072 19.7867 29.0072 19.6955 29.0072 19.5814C29.0072 16.9361 30.2781 14.4275 32.2299 12.7172C34.2271 10.9384 36.9959 9.84378 40.037 9.84378C43.1009 9.84378 45.8697 10.9384 47.8442 12.7172C49.8187 14.496 51.0669 16.9589 51.0669 19.5814C51.0669 19.6955 51.0669 19.7867 51.0669 19.8095C51.0669 19.8779 51.0669 19.9235 51.0669 20.0147C51.0669 20.1059 50.9988 20.22 50.9534 20.2884C50.8853 20.3568 50.8173 20.4024 50.6811 20.4024C50.6584 20.4024 50.6584 20.4024 50.613 20.4024H50.5903C50.1137 20.2656 49.6144 20.1288 49.0924 19.9919C48.5704 19.8779 48.0711 19.7639 47.5492 19.627C47.4357 19.6042 47.2768 19.627 47.186 19.6955C47.0726 19.7639 46.9818 19.8779 46.9591 19.9919C46.891 20.1288 46.9364 20.2884 46.9818 20.4024C47.0045 20.4936 47.0499 20.5164 47.0953 20.5848C47.186 20.6989 47.3222 20.8585 47.4811 21.0181C48.1846 21.8163 49.569 23.367 49.6371 23.5267C49.6598 23.6407 49.6598 23.7319 49.6371 23.8231C49.6144 23.9144 49.569 24.0056 49.5236 24.0968L39.3335 37.4604C41.4895 30.5049 44.8484 22.5689 44.8484 15.4538ZM54.04 52.0555C54.04 52.0327 54.04 51.9643 54.0173 51.9415L51.3619 34.6098C51.3393 34.3818 51.0896 34.1993 50.8627 34.2221C50.6357 34.2449 50.4541 34.4958 50.4768 34.7238L53.1322 52.0783V69.8889H38.4484V39.8777L50.091 24.6441C50.2272 24.4389 50.318 24.2564 50.3861 24.0284C50.4541 23.8231 50.4541 23.5951 50.3861 23.3442C50.2953 22.9794 49.1151 21.6339 48.3208 20.7445C48.5024 20.7673 48.6385 20.8357 48.8201 20.8585C49.3194 20.9725 49.796 21.1322 50.2726 21.2462C50.3407 21.269 50.3861 21.269 50.4541 21.269C50.5222 21.269 50.5676 21.269 50.5903 21.269C50.908 21.269 51.2485 21.155 51.4527 20.9041C51.6797 20.6989 51.8385 20.4024 51.8612 20.0831C51.8612 20.0147 51.8612 19.9463 51.8612 19.8095C51.8612 19.6727 51.8612 19.6042 51.8612 19.5814C51.8612 19.2622 51.8385 18.8973 51.7932 18.578L55.901 20.9725C56.2187 21.1778 56.4911 21.383 56.6726 21.6795C56.8542 21.9531 56.9677 22.2496 57.0357 22.5917L61.9833 57.483L57.9435 57.8023C57.5577 57.8251 57.24 58.0076 56.9904 58.304C56.7634 58.5777 56.6272 58.9198 56.6726 59.3074C56.6953 59.6951 56.8769 60.0144 57.1492 60.2652C57.4216 60.4933 57.8074 60.6301 58.1478 60.5845L62.3691 60.2196L62.5053 61.223L55.4925 61.7475L54.04 52.0555ZM37.586 39.7637V69.9117H27.2597V49.0909L29.4384 34.7238C29.4611 34.4958 29.3022 34.2449 29.0753 34.2221C28.8483 34.1993 28.5987 34.359 28.576 34.6098L26.3972 48.954C26.3972 48.9768 26.3746 49.0453 26.3746 49.0681L24.4455 61.8616L17.4327 61.3371L17.5688 60.3336L21.7901 60.6529C22.1759 60.6757 22.5164 60.5617 22.7887 60.3336C23.0611 60.1056 23.2653 59.7635 23.2653 59.3758C23.288 58.9882 23.1745 58.6461 22.9476 58.3724C22.7206 58.0988 22.3802 57.8935 21.9944 57.8707L17.9546 57.5287L22.9249 22.6373C22.993 22.2724 23.1064 21.9759 23.288 21.7251C23.4696 21.4514 23.7192 21.2234 24.0596 21.0181L28.1221 18.6236C28.0994 18.9429 28.054 19.285 28.054 19.6042C28.054 19.627 28.054 19.6955 28.054 19.8323C28.054 19.9235 28.054 20.0147 28.054 20.1059C28.0767 20.4252 28.2356 20.7217 28.4625 20.9269C28.6895 21.1322 28.9845 21.2918 29.3249 21.2918C29.4384 21.2918 29.5292 21.2918 29.6427 21.269C30.1193 21.1322 30.6186 20.9953 31.0951 20.8813C31.2313 20.8585 31.4129 20.7901 31.5717 20.7673C30.7774 21.6567 29.5746 22.9794 29.5065 23.3442C29.4384 23.5723 29.4384 23.8231 29.5065 24.0284C29.5746 24.2336 29.6427 24.4389 29.8015 24.6441L38.6753 36.1605C38.4711 36.8447 37.586 39.2392 37.586 39.7637ZM26.3972 54.9061V70.3678C26.3972 70.6414 26.6015 70.8467 26.8285 70.8467C35.7704 70.8467 44.6669 70.8467 53.5861 70.8467C53.813 70.8467 54.0173 70.6414 54.0173 70.3678V57.8707L54.6981 62.3633C54.7208 62.5913 54.9705 62.7738 55.1747 62.751L63.0727 62.158C63.2996 62.1352 63.4812 61.8844 63.4585 61.6563L63.1861 59.7635L62.9138 57.8935C62.9138 57.8707 62.9138 57.8707 62.9138 57.8707L57.9209 22.5233C57.8528 22.0444 57.6939 21.6111 57.4216 21.2234C57.1492 20.8357 56.8088 20.5164 56.3549 20.2656L51.6343 17.4834C51.1577 15.3853 49.9775 13.5154 48.3662 12.1015C46.2101 10.1859 43.2371 9 39.969 9C36.7009 9 33.7278 10.1859 31.5717 12.1015C29.915 13.561 28.7802 15.4082 28.3036 17.529L23.6284 20.2884C23.1972 20.562 22.8341 20.8813 22.5618 21.2462C22.2894 21.6339 22.1533 22.0444 22.0625 22.5461L17.0468 57.8707C17.0468 57.8935 17.0468 57.8935 17.0468 57.8935L16.7745 59.7635L16.5022 61.6563C16.4795 61.8844 16.6383 62.1352 16.888 62.158H16.9107L24.7859 62.751C25.0128 62.7738 25.2171 62.6141 25.2625 62.3633L26.3972 54.9061ZM41.2853 41.9302C40.8768 41.9302 40.5136 42.067 40.264 42.3406C39.9917 42.6143 39.8555 42.9564 39.8555 43.3669C39.8555 43.7773 39.9917 44.1422 40.264 44.3931C40.5363 44.6667 40.8768 44.8036 41.2853 44.8036C41.6938 44.8036 42.0569 44.6667 42.3066 44.3931C42.5789 44.1194 42.7151 43.7773 42.7151 43.3669C42.7151 42.9564 42.5789 42.5915 42.3066 42.3406C42.0115 42.0898 41.6711 41.9302 41.2853 41.9302ZM40.8541 43.002C40.9449 42.888 41.081 42.8195 41.2626 42.8195C41.3988 42.8195 41.5576 42.888 41.6484 43.002C41.7619 43.0932 41.83 43.23 41.83 43.3897C41.83 43.5265 41.7619 43.6861 41.6484 43.8002C41.5576 43.8914 41.4215 43.9826 41.2626 43.9826C41.1264 43.9826 40.9676 43.9142 40.8541 43.8002C40.7406 43.6861 40.6725 43.5721 40.6725 43.3897C40.6952 43.23 40.786 43.0932 40.8541 43.002ZM41.2853 52.5572C40.8768 52.5572 40.5136 52.694 40.264 52.9677C39.9917 53.2413 39.8555 53.5834 39.8555 53.9939C39.8555 54.4044 39.9917 54.7693 40.264 55.0201C40.5363 55.2938 40.8768 55.4306 41.2853 55.4306C41.6938 55.4306 42.0569 55.2938 42.3066 55.0201C42.5789 54.7465 42.7151 54.4044 42.7151 53.9939C42.7151 53.5834 42.5789 53.2185 42.3066 52.9677C42.0115 52.7168 41.6711 52.5572 41.2853 52.5572ZM40.8541 53.6062C40.9449 53.515 41.081 53.4238 41.2626 53.4238C41.3988 53.4238 41.5576 53.4922 41.6484 53.6062C41.7619 53.6974 41.83 53.8343 41.83 54.0167C41.83 54.1991 41.7619 54.3132 41.6484 54.4272C41.5576 54.5184 41.4215 54.564 41.2626 54.564C41.1264 54.564 40.9676 54.4956 40.8541 54.4272C40.7633 54.3132 40.6725 54.1991 40.6725 54.0167C40.6952 53.8343 40.786 53.7203 40.8541 53.6062ZM41.2853 63.1614C40.8768 63.1614 40.5136 63.3439 40.264 63.5719C39.9917 63.8456 39.8555 64.1877 39.8555 64.5981C39.8555 64.9858 39.9917 65.3735 40.264 65.6244C40.5363 65.898 40.8768 66.0349 41.2853 66.0349C41.6938 66.0349 42.0569 65.8524 42.3066 65.6244C42.5789 65.3507 42.7151 65.0086 42.7151 64.5981C42.7151 64.1877 42.5789 63.8228 42.3066 63.5719C42.0115 63.3439 41.6711 63.1614 41.2853 63.1614ZM40.8541 64.2333C40.9449 64.1421 41.081 64.0508 41.2626 64.0508C41.3988 64.0508 41.5576 64.1193 41.6484 64.2333C41.7619 64.3245 41.83 64.4613 41.83 64.6438C41.83 64.7806 41.7619 64.9402 41.6484 65.0314C41.5576 65.1227 41.4215 65.2139 41.2626 65.2139C41.1264 65.2139 40.9676 65.1455 40.8541 65.0314C40.7633 64.9402 40.6725 64.8034 40.6725 64.6438C40.6952 64.4613 40.786 64.3245 40.8541 64.2333ZM28.7575 63.0702L30.6412 63.2755C30.8682 63.2983 31.1178 63.1386 31.1178 62.8878L32.4796 49.3189C32.5023 49.0909 32.3434 48.84 32.071 48.84L30.1873 48.6348C29.9604 48.612 29.7107 48.7716 29.7107 49.0453L28.349 62.6141C28.349 62.8422 28.5079 63.0474 28.7575 63.0702ZM30.2781 62.3405L29.2795 62.2493L30.5505 49.5698L31.5491 49.6838L30.2781 62.3405ZM51.1804 62.2493L50.1591 62.3405L48.8882 49.661L49.9095 49.547L51.1804 62.2493ZM49.796 63.2527L51.6797 63.0474C51.9066 63.0246 52.0882 62.8194 52.0655 62.5685L50.7038 48.9997C50.6811 48.7716 50.4768 48.5892 50.2272 48.5892L48.3435 48.7944C48.1165 48.8172 47.935 49.0225 47.9577 49.2733L49.3194 62.8422C49.3648 63.1158 49.569 63.2755 49.796 63.2527ZM17.7277 59.4443L17.8639 58.418L21.9717 58.7829C22.1079 58.7829 22.244 58.8741 22.3348 58.9654C22.4256 59.0566 22.4483 59.1934 22.4483 59.3302V59.353C22.4256 59.4899 22.3575 59.6267 22.2667 59.6723C22.1759 59.7635 22.0398 59.7863 21.9036 59.7863H21.8809L17.7277 59.4443ZM62.1422 58.3952L62.2783 59.4215L58.1478 59.7407H58.1251C57.9889 59.7407 57.8528 59.7179 57.762 59.6267C57.6712 59.5355 57.6258 59.4215 57.5804 59.3074V59.2846C57.5804 59.1478 57.6031 59.011 57.6939 58.9197C57.7847 58.8285 57.8982 58.7373 58.057 58.7373L62.1422 58.3952ZM40.2867 31.4856C40.1959 31.782 40.0824 32.0785 39.9917 32.3749L39.8782 32.0557C37.9264 26.3089 35.9973 20.4936 35.9973 15.4994C35.9973 14.4047 36.4285 13.4013 37.1548 12.6488C37.881 11.9418 38.8569 11.4857 39.9917 11.4857C41.081 11.4857 42.0796 11.919 42.8286 12.6488C43.5321 13.3785 43.986 14.3591 43.986 15.4994C43.9633 20.6305 42.0115 26.3545 40.2867 31.4856Z" fill="#010066"/>
</svg>

<svg width="80" height="80" fill="none" xmlns="http://www.w3.org/2000/svg"><circle cx="40" cy="40" r="40" fill="#fff"/><path d="M44.848 15.454c0-1.369-.522-2.577-1.407-3.467-.885-.889-2.088-1.414-3.45-1.414a4.88 4.88 0 0 0-3.449 1.414c-.885.89-1.407 2.098-1.407 3.467 0 5.154 1.974 11.014 3.926 16.852.136.48.318.958.477 1.414l-.477 1.414-8.51-11.083c-.069-.091-.091-.182-.114-.273a.654.654 0 0 1 0-.297c.023-.182 1.407-1.71 2.156-2.486.204-.228.386-.41.408-.433.137-.182.205-.365.114-.57-.023-.114-.136-.228-.227-.297a.502.502 0 0 0-.363-.068c-.522.091-1.021.205-1.543.365-.522.114-.999.274-1.498.41h-.091c-.114 0-.204-.022-.272-.114a.342.342 0 0 1-.114-.273v-.434c0-2.645 1.271-5.153 3.223-6.864 1.997-1.779 4.766-2.873 7.807-2.873 3.064 0 5.833 1.094 7.807 2.873 1.975 1.779 3.223 4.242 3.223 6.864v.434c0 .09-.068.205-.114.273a.34.34 0 0 1-.272.114h-.091a67.524 67.524 0 0 0-1.498-.41 37.577 37.577 0 0 1-1.543-.365.502.502 0 0 0-.363.069.484.484 0 0 0-.227.296c-.068.137-.023.296.023.41.023.092.068.114.113.183.091.114.227.273.386.433.704.798 2.088 2.349 2.156 2.509a.651.651 0 0 1 0 .296c-.023.091-.068.183-.113.274L39.334 37.46c2.155-6.955 5.514-14.891 5.514-22.006Zm9.192 36.602c0-.023 0-.092-.023-.114L51.362 34.61c-.023-.228-.272-.41-.5-.388-.226.023-.408.274-.385.502l2.655 17.354v17.81H38.448v-30.01l11.643-15.234c.136-.205.227-.388.295-.616a1.17 1.17 0 0 0 0-.684c-.09-.365-1.27-1.71-2.065-2.6.181.023.318.092.5.114.498.114.975.274 1.452.388a.497.497 0 0 0 .181.023h.136c.318 0 .658-.114.863-.365.227-.205.386-.502.408-.82v-.503c0-.319-.022-.684-.068-1.003l4.108 2.395c.318.205.59.41.772.707.181.273.295.57.363.912l4.947 34.891-4.04.32c-.385.022-.703.205-.953.501-.227.274-.363.616-.317 1.003.022.388.204.707.476.958.273.228.658.365.999.32l4.221-.365.136 1.003-7.013.525-1.452-9.692ZM37.586 39.764v30.148H27.26V49.09l2.178-14.367c.023-.228-.136-.48-.363-.502-.227-.023-.476.137-.499.388l-2.179 14.344c0 .023-.022.091-.022.114l-1.93 12.794-7.012-.525.136-1.003 4.221.319a1.39 1.39 0 0 0 .999-.32c.272-.227.476-.57.476-.957.023-.388-.09-.73-.317-1.004a1.362 1.362 0 0 0-.954-.501l-4.04-.342 4.97-34.892c.069-.365.182-.661.364-.912.182-.274.431-.502.772-.707l4.062-2.394c-.023.319-.068.661-.068.98v.502c.023.32.182.616.409.82.226.206.521.366.862.366.113 0 .204 0 .318-.023.476-.137.976-.274 1.452-.388.136-.023.318-.09.477-.114-.795.89-1.997 2.212-2.066 2.577a1.17 1.17 0 0 0 0 .684c.069.206.137.41.296.616l8.873 11.517c-.204.684-1.089 3.078-1.089 3.603ZM26.397 54.906v15.462c0 .273.205.479.431.479h26.758c.227 0 .431-.206.431-.48V57.872l.681 4.492c.023.228.273.41.477.388l7.898-.593c.227-.023.408-.274.386-.502l-.273-1.892-.272-1.87v-.023L57.92 22.523a2.936 2.936 0 0 0-.5-1.3 3.11 3.11 0 0 0-1.066-.957l-4.72-2.783c-.477-2.098-1.657-3.968-3.269-5.382C46.21 10.186 43.237 9 39.97 9c-3.268 0-6.241 1.186-8.397 3.101-1.657 1.46-2.792 3.307-3.268 5.428l-4.676 2.76a3.964 3.964 0 0 0-1.066.957c-.273.388-.409.798-.5 1.3l-5.015 35.325v.023l-.273 1.87-.272 1.892c-.022.228.136.48.386.502h.023l7.875.593c.227.023.431-.137.476-.388l1.135-7.457ZM41.285 41.93c-.408 0-.771.137-1.021.41a1.396 1.396 0 0 0-.409 1.027c0 .41.137.775.409 1.026.272.274.613.41 1.021.41.409 0 .772-.136 1.022-.41.272-.274.408-.616.408-1.026 0-.41-.136-.775-.408-1.026-.296-.251-.636-.41-1.022-.41Zm-.43 1.072a.498.498 0 0 1 .408-.183c.136 0 .295.069.385.183a.488.488 0 0 1 .182.388.615.615 0 0 1-.182.41.564.564 0 0 1-.385.183.609.609 0 0 1-.409-.183.535.535 0 0 1-.181-.41.88.88 0 0 1 .181-.388Zm.43 9.555c-.408 0-.771.137-1.021.41a1.396 1.396 0 0 0-.409 1.027c0 .41.137.775.409 1.026.272.274.613.41 1.021.41.409 0 .772-.136 1.022-.41.272-.274.408-.616.408-1.026 0-.41-.136-.776-.408-1.026-.296-.251-.636-.41-1.022-.41Zm-.43 1.05a.574.574 0 0 1 .408-.183c.136 0 .295.068.385.182a.502.502 0 0 1 .182.41.535.535 0 0 1-.182.411.532.532 0 0 1-.385.137.872.872 0 0 1-.409-.137c-.09-.114-.181-.228-.181-.41.022-.183.113-.297.181-.41Zm.43 9.554a1.54 1.54 0 0 0-1.021.41 1.396 1.396 0 0 0-.409 1.027c0 .388.137.776.409 1.026.272.274.613.41 1.021.41a1.54 1.54 0 0 0 1.022-.41c.272-.273.408-.615.408-1.026 0-.41-.136-.775-.408-1.026-.296-.228-.636-.41-1.022-.41Zm-.43 1.072a.574.574 0 0 1 .408-.182c.136 0 .295.068.385.182a.502.502 0 0 1 .182.41.523.523 0 0 1-.182.388.564.564 0 0 1-.385.183.608.608 0 0 1-.409-.183.569.569 0 0 1-.181-.387.861.861 0 0 1 .181-.41ZM28.757 63.07l1.883.206c.227.022.477-.137.477-.388l1.362-13.57c.022-.227-.137-.478-.409-.478l-1.884-.205c-.227-.023-.476.137-.476.41l-1.362 13.57c0 .227.159.432.409.455Zm1.52-.73-.998-.09 1.27-12.68 1 .114-1.272 12.657Zm20.902-.09-1.02.09-1.272-12.679 1.022-.114 1.27 12.702Zm-1.384 1.003 1.884-.206a.437.437 0 0 0 .386-.478l-1.362-13.57a.47.47 0 0 0-.477-.41l-1.883.205a.437.437 0 0 0-.386.48l1.361 13.568c.046.274.25.434.477.41Zm-32.068-3.809.136-1.026 4.108.365c.136 0 .272.091.363.182.09.092.113.228.113.365v.023c-.022.137-.09.274-.181.32-.091.09-.227.113-.363.113h-.023l-4.153-.342Zm44.414-1.049.136 1.026-4.13.32h-.023c-.136 0-.272-.023-.363-.114a.895.895 0 0 1-.182-.32v-.022c0-.137.023-.274.114-.365.09-.092.204-.183.363-.183l4.085-.342Zm-21.855-26.91c-.091.297-.205.593-.295.89l-.114-.32c-1.952-5.746-3.88-11.561-3.88-16.556 0-1.094.43-2.098 1.157-2.85a4.022 4.022 0 0 1 2.837-1.163c1.089 0 2.088.433 2.837 1.163a4.061 4.061 0 0 1 1.157 2.85c-.023 5.132-1.974 10.856-3.7 15.987Z" fill="#010066"/></svg>
